Humanity/mimes/48/x-office-spreadsheet.svg

<?xml version="1.0" encoding="UTF-8" standalone="no"?>
<!-- Created with Inkscape (http://www.inkscape.org/) -->

<svg
   xmlns:svg="http://www.w3.org/2000/svg"
   xmlns="http://www.w3.org/2000/svg"
   xmlns:xlink="http://www.w3.org/1999/xlink"
   version="1.0"
   width="48"
   height="48"
   id="svg3809">
  <defs
     id="defs3811">
    <linearGradient
       id="linearGradient5048">
      <stop
         id="stop5050"
         style="stop-color:black;stop-opacity:0"
         offset="0" />
      <stop
         id="stop5056"
         style="stop-color:black;stop-opacity:1"
         offset="0.5" />
      <stop
         id="stop5052"
         style="stop-color:black;stop-opacity:0"
         offset="1" />
    </linearGradient>
    <linearGradient
       x1="302.85715"
       y1="366.64789"
       x2="302.85715"
       y2="609.50507"
       id="linearGradient3037"
       xlink:href="#linearGradient5048"
       gradientUnits="userSpaceOnUse"
       gradientTransform="matrix(0.06732488,0,0,0.01470022,-0.3411391,37.040146)" />
    <radialGradient
       cx="605.71429"
       cy="486.64789"
       r="117.14286"
       fx="605.71429"
       fy="486.64789"
       id="radialGradient3034"
       xlink:href="#linearGradient5060"
       gradientUnits="userSpaceOnUse"
       gradientTransform="matrix(-0.02303994,0,0,0.01470022,21.62311,37.040176)" />
    <linearGradient
       id="linearGradient5060">
      <stop
         id="stop5062"
         style="stop-color:black;stop-opacity:1"
         offset="0" />
      <stop
         id="stop5064"
         style="stop-color:black;stop-opacity:0"
         offset="1" />
    </linearGradient>
    <radialGradient
       cx="605.71429"
       cy="486.64789"
       r="117.14286"
       fx="605.71429"
       fy="486.64789"
       id="radialGradient3031"
       xlink:href="#linearGradient5060"
       gradientUnits="userSpaceOnUse"
       gradientTransform="matrix(0.02303995,0,0,0.01470022,26.360882,37.040176)" />
    <linearGradient
       id="linearGradient3104">
      <stop
         id="stop3106"
         style="stop-color:#aaa;stop-opacity:1"
         offset="0" />
      <stop
         id="stop3108"
         style="stop-color:#c8c8c8;stop-opacity:1"
         offset="1" />
    </linearGradient>
    <linearGradient
       x1="-51.786404"
       y1="50.786446"
       x2="-51.786404"
       y2="2.9062471"
       id="linearGradient3028"
       xlink:href="#linearGradient3104"
       gradientUnits="userSpaceOnUse"
       gradientTransform="matrix(0.8074968,0,0,0.8948322,59.410232,-2.9805533)" />
    <linearGradient
       id="linearGradient3600">
      <stop
         id="stop3602"
         style="stop-color:#f4f4f4;stop-opacity:1"
         offset="0" />
      <stop
         id="stop3604"
         style="stop-color:#dbdbdb;stop-opacity:1"
         offset="1" />
    </linearGradient>
    <linearGradient
       x1="25.132275"
       y1="0.98520643"
       x2="25.132275"
       y2="47.013336"
       id="linearGradient3025"
       xlink:href="#linearGradient3600"
       gradientUnits="userSpaceOnUse"
       gradientTransform="matrix(1,0,0,0.9561695,-1.0064697e-7,-1.914922)" />
    <radialGradient
       cx="102"
       cy="112.3047"
       r="139.55859"
       id="XMLID_8_"
       gradientUnits="userSpaceOnUse">
      <stop
         id="stop41"
         style="stop-color:#b7b8b9;stop-opacity:1"
         offset="0" />
      <stop
         id="stop47"
         style="stop-color:#ececec;stop-opacity:1"
         offset="0.18851049" />
      <stop
         id="stop49"
         style="stop-color:#fafafa;stop-opacity:0"
         offset="0.25718147" />
      <stop
         id="stop51"
         style="stop-color:white;stop-opacity:0"
         offset="0.30111277" />
      <stop
         id="stop53"
         style="stop-color:#fafafa;stop-opacity:0"
         offset="0.53130001" />
      <stop
         id="stop55"
         style="stop-color:#ebecec;stop-opacity:0"
         offset="0.84490001" />
      <stop
         id="stop57"
         style="stop-color:#e1e2e3;stop-opacity:0"
         offset="1" />
    </radialGradient>
    <radialGradient
       cx="102"
       cy="112.3047"
       r="139.55859"
       id="radialGradient3022"
       xlink:href="#XMLID_8_"
       gradientUnits="userSpaceOnUse"
       gradientTransform="matrix(0.3617022,0,0,-0.3907784,0.8510637,47.517004)" />
    <linearGradient
       id="linearGradient3211">
      <stop
         id="stop3213"
         style="stop-color:white;stop-opacity:1"
         offset="0" />
      <stop
         id="stop3215"
         style="stop-color:white;stop-opacity:0"
         offset="1" />
    </linearGradient>
    <linearGradient
       x1="24"
       y1="1.9999999"
       x2="24"
       y2="46.01725"
       id="linearGradient3019"
       xlink:href="#linearGradient3211"
       gradientUnits="userSpaceOnUse"
       gradientTransform="matrix(1,0,0,0.9777778,0,-0.9666693)" />
    <linearGradient
       id="linearGradient3522-760-763-461-713-284">
      <stop
         id="stop11893"
         style="stop-color:#dfd28f;stop-opacity:1"
         offset="0" />
      <stop
         id="stop11895"
         style="stop-color:#c88237;stop-opacity:1"
         offset="1" />
    </linearGradient>
    <radialGradient
       cx="15.321416"
       cy="13.642964"
       r="12.5"
       fx="15.321416"
       fy="13.642964"
       id="radialGradient3016"
       xlink:href="#linearGradient3522-760-763-461-713-284"
       gradientUnits="userSpaceOnUse"
       gradientTransform="matrix(0,2.7013009,-4.1270674,0,71.626848,-30.573054)" />
    <linearGradient
       x1="17.072428"
       y1="6.0021772"
       x2="17.072428"
       y2="40.010803"
       id="linearGradient3005"
       xlink:href="#linearGradient3251"
       gradientUnits="userSpaceOnUse" />
    <linearGradient
       id="linearGradient3251">
      <stop
         id="stop3253"
         style="stop-color:#828282;stop-opacity:1"
         offset="0" />
      <stop
         id="stop3255"
         style="stop-color:#6c6c6c;stop-opacity:1"
         offset="1" />
    </linearGradient>
    <linearGradient
       x1="22.084337"
       y1="6"
       x2="22.084337"
       y2="40.000214"
       id="linearGradient3002"
       xlink:href="#linearGradient3251"
       gradientUnits="userSpaceOnUse" />
    <filter
       x="-0.14846256"
       y="-0.16434373"
       width="1.2969251"
       height="1.3286875"
       color-interpolation-filters="sRGB"
       id="filter3212">
      <feGaussianBlur
         id="feGaussianBlur3214"
         stdDeviation="0.77391625" />
    </filter>
    <linearGradient
       id="linearGradient8589">
      <stop
         id="stop8591"
         style="stop-color:#fefefe;stop-opacity:1"
         offset="0" />
      <stop
         id="stop8593"
         style="stop-color:#cbcbcb;stop-opacity:1"
         offset="1" />
    </linearGradient>
    <linearGradient
       x1="32.892288"
       y1="8.0590115"
       x2="36.358372"
       y2="5.4565363"
       id="linearGradient2998"
       xlink:href="#linearGradient8589"
       gradientUnits="userSpaceOnUse"
       gradientTransform="matrix(0.9976985,0,0,1.0406866,0.1638029,-1.1057939)" />
  </defs>
  <g
     id="layer1">
    <rect
       width="32.508301"
       height="3.5700529"
       x="7.7378473"
       y="42.429947"
       id="rect2879"
       style="opacity:0.3;fill:url(#linearGradient3037);fill-opacity:1;fill-rule:nonzero;stroke:none;stroke-width:1;marker:none;visibility:visible;display:inline;overflow:visible" />
    <path
       d="m 7.7378475,42.430102 c 0,0 0,3.569856 0,3.569856 -1.1865002,0.0067 -2.8683795,-0.799823 -2.8683795,-1.785158 0,-0.985333 1.3240446,-1.784697 2.8683795,-1.784698 z"
       id="path2881"
       style="opacity:0.3;fill:url(#radialGradient3034);fill-opacity:1;fill-rule:nonzero;stroke:none;stroke-width:1;marker:none;visibility:visible;display:inline;overflow:visible" />
    <path
       d="m 40.246148,42.430102 c 0,0 0,3.569856 0,3.569856 1.1865,0.0067 2.86838,-0.799823 2.86838,-1.785158 0,-0.985333 -1.324045,-1.784697 -2.86838,-1.784698 z"
       id="path2883"
       style="opacity:0.3;fill:url(#radialGradient3031);fill-opacity:1;fill-rule:nonzero;stroke:none;stroke-width:1;marker:none;visibility:visible;display:inline;overflow:visible" />
    <path
       d="m 6.4999609,0.49719878 c 8.0202951,0 16.0405901,0 24.0608861,0 1.406933,0.4746531 8.965454,5.88220462 10.939195,9.62640622 0,11.459733 0,22.919465 0,34.379198 -11.666694,0 -23.333387,0 -35.0000811,0 0,-14.668535 0,-29.33707 0,-44.00560422 z"
       id="path4160"
       style="fill:url(#linearGradient3025);fill-opacity:1;stroke:url(#linearGradient3028);stroke-width:0.99992186;stroke-linecap:butt;stroke-linejoin:round;stroke-miterlimit:4;stroke-opacity:1;stroke-dasharray:none;stroke-dashoffset:0;display:inline" />
    <path
       d="m 7.3617017,44 c -0.199297,0 -0.361702,-0.175459 -0.361702,-0.39078 l 0,-42.2040499 c 0,-0.2157088 0.162405,-0.3907775 0.361702,-0.3907775 C 14.844793,1.1224073 23.137385,0.85281757 30.611384,1.0412872 L 40.894021,9.9073127 41,43.60922 C 41,43.824541 40.837957,44 40.638297,44 L 7.3617017,44 z"
       id="path4191"
       style="fill:url(#radialGradient3022);fill-opacity:1" />
    <path
       d="m 40.500039,10.258811 c 0,10.949037 0,22.31441 0,33.263447 -11.000026,0 -22.000052,0 -33.0000781,0 0,-14.014841 0,-28.029681 0,-42.0445213 7.5619931,0 15.3043341,0 22.8663281,0"
       id="path2435"
       style="opacity:0.6;fill:none;stroke:url(#linearGradient3019);stroke-width:0.9999218;stroke-linecap:butt;stroke-linejoin:round;stroke-miterlimit:4;stroke-opacity:1;stroke-dasharray:none;stroke-dashoffset:0;display:inline" />
    <path
       d="m 11,11.110866 5.92847,0 0,28.287964 -5.92847,0 0,-28.287964 z M 17,7 l 19,0 0,4 -19,0 0,-4 z"
       id="path3897"
       style="fill:url(#radialGradient3016);fill-opacity:1;stroke:none;display:inline" />
    <rect
       width="6"
       height="6"
       x="11"
       y="6"
       id="rect3775"
       style="fill:#dfdac0;fill-opacity:1;stroke:none;display:inline" />
    <path
       d="M 26.5,6.5401243 26.5,39.397"
       id="path3595"
       style="fill:none;stroke:#5d542c;stroke-width:0.99999994;stroke-linecap:butt;stroke-linejoin:miter;stroke-miterlimit:4;stroke-opacity:0.32417597;stroke-dasharray:none;display:inline" />
    <path
       d="M 36.499871,16.5 11.5,16.5"
       id="path3607"
       style="fill:none;stroke:#5d542c;stroke-width:0.99999994;stroke-linecap:butt;stroke-linejoin:miter;stroke-miterlimit:4;stroke-opacity:0.32417597;stroke-dasharray:none;display:inline" />
    <path
       d="M 36.499871,21.5 11.5,21.5"
       id="path3597"
       style="fill:none;stroke:#5d542c;stroke-width:0.99999994;stroke-linecap:butt;stroke-linejoin:miter;stroke-miterlimit:4;stroke-opacity:0.32417597;stroke-dasharray:none;display:inline" />
    <path
       d="m 36.499891,26.5 -24.999881,0"
       id="path3609"
       style="fill:none;stroke:#5d542c;stroke-width:0.99999994;stroke-linecap:butt;stroke-linejoin:miter;stroke-miterlimit:4;stroke-opacity:0.32417597;stroke-dasharray:none;display:inline" />
    <path
       d="M 36.499871,31.5 11.5,31.5"
       id="path3603"
       style="fill:none;stroke:#5d542c;stroke-width:0.99999994;stroke-linecap:butt;stroke-linejoin:miter;stroke-miterlimit:4;stroke-opacity:0.32417597;stroke-dasharray:none;display:inline" />
    <path
       d="M 36.499871,36.5 11.5,36.5"
       id="path3611"
       style="fill:none;stroke:#5d542c;stroke-width:0.99999994;stroke-linecap:butt;stroke-linejoin:miter;stroke-miterlimit:4;stroke-opacity:0.32417597;stroke-dasharray:none;display:inline" />
    <path
       d="M 12.499999,7.5312499 35.499998,7.494761"
       id="path4743"
       style="opacity:0.2;fill:white;fill-rule:evenodd;stroke:white;stroke-width:0.99999994;stroke-linecap:square;stroke-linejoin:round;stroke-miterlimit:4;stroke-opacity:1;stroke-dasharray:none;display:inline" />
    <path
       d="m 36.499999,11.5 -24.999861,0 M 16.5,6.5021773 l 0,32.9956437"
       id="path3605"
       style="fill:none;stroke:url(#linearGradient3005);stroke-width:0.99999994;stroke-linecap:butt;stroke-linejoin:miter;stroke-miterlimit:4;stroke-opacity:1;stroke-dasharray:none;display:inline" />
    <rect
       width="25"
       height="33"
       x="11.5"
       y="6.5"
       id="rect3580"
       style="fill:none;stroke:url(#linearGradient3002);stroke-width:0.99999994;stroke-linecap:square;stroke-linejoin:miter;stroke-miterlimit:4;stroke-opacity:1;stroke-dasharray:none;stroke-dashoffset:0;display:inline" />
    <path
       d="m 28.617256,0.92125832 c 4.282522,0 2.15325,8.48317128 2.15325,8.48317128 0,0 10.357642,-1.8023467 10.357642,2.8187444 0,-2.6097233 -11.302304,-10.7285956 -12.510892,-11.30191568 z"
       id="path12038"
       style="opacity:0.4;fill:black;fill-opacity:1;fill-rule:evenodd;stroke:none;display:inline;filter:url(#filter3212)" />
    <path
       d="m 28.617256,0.92125832 c 3.186493,0 2.33576,7.66187848 2.33576,7.66187848 0,0 10.175132,-0.9810539 10.175132,3.6400372 0,-1.125939 0.08591,-1.932245 -0.133777,-2.2835928 C 39.416058,7.4154025 32.598855,1.7511811 30.137071,1.008793 29.952849,0.95323837 29.544367,0.92125832 28.617256,0.92125832 z"
       id="path4474"
       style="fill:url(#linearGradient2998);fill-opacity:1;fill-rule:evenodd;stroke:none;display:inline" />
  </g>
</svg>

<?xml version="1.0" encoding="UTF-8" standalone="no"?>
<!-- Created with Inkscape (http://www.inkscape.org/) -->
<svg id="svg4298" xmlns:rdf="http://www.w3.org/1999/02/22-rdf-syntax-ns#" xmlns="http://www.w3.org/2000/svg" height="48px" width="48px" version="1.1" xmlns:cc="http://creativecommons.org/ns#" xmlns:xlink="http://www.w3.org/1999/xlink" xmlns:dc="http://purl.org/dc/elements/1.1/">
 <defs id="defs4300">
  <linearGradient id="linearGradient3394" y2="5.4565" gradientUnits="userSpaceOnUse" x2="36.358" gradientTransform="matrix(.99770 0 0 1.0407 .16380 -1.1058)" y1="8.059" x1="32.892">
   <stop id="stop8591" style="stop-color:#fefefe" offset="0"/>
   <stop id="stop8593" style="stop-color:#cbcbcb" offset="1"/>
  </linearGradient>
  <filter id="filter3212" height="1.3287" width="1.2969" color-interpolation-filters="sRGB" y="-.16434" x="-.14846">
   <feGaussianBlur id="feGaussianBlur3214" stdDeviation="0.77391625"/>
  </filter>
  <linearGradient id="linearGradient3398" y2="40" xlink:href="#linearGradient3251" gradientUnits="userSpaceOnUse" x2="22.084" y1="6" x1="22.084"/>
  <linearGradient id="linearGradient3251">
   <stop id="stop3253" style="stop-color:#828282" offset="0"/>
   <stop id="stop3255" style="stop-color:#6c6c6c" offset="1"/>
  </linearGradient>
  <linearGradient id="linearGradient3401" y2="40.011" xlink:href="#linearGradient3251" gradientUnits="userSpaceOnUse" x2="17.072" y1="6.0022" x1="17.072"/>
  <radialGradient id="radialGradient3412" gradientUnits="userSpaceOnUse" cy="13.643" cx="15.321" gradientTransform="matrix(0 2.7013 -4.1271 0 71.627 -30.573)" r="12.5">
   <stop id="stop3618" style="stop-color:#f0c178" offset="0"/>
   <stop id="stop3270" style="stop-color:#e18941" offset=".5"/>
   <stop id="stop3620" style="stop-color:#ec4f18" offset="1"/>
  </radialGradient>
  <linearGradient id="linearGradient3415" y2="46.017" gradientUnits="userSpaceOnUse" x2="24" gradientTransform="matrix(1 0 0 .97778 0 -.96667)" y1="2" x1="24">
   <stop id="stop3213" style="stop-color:#fff" offset="0"/>
   <stop id="stop3215" style="stop-color:#fff;stop-opacity:0" offset="1"/>
  </linearGradient>
  <radialGradient id="radialGradient3418" gradientUnits="userSpaceOnUse" cy="112.3" cx="102" gradientTransform="matrix(.36170 0 0 -.39078 .85106 47.517)" r="139.56">
   <stop id="stop41" style="stop-color:#b7b8b9" offset="0"/>
   <stop id="stop47" style="stop-color:#ececec" offset=".18851"/>
   <stop id="stop49" style="stop-color:#fafafa;stop-opacity:0" offset=".25718"/>
   <stop id="stop51" style="stop-color:#fff;stop-opacity:0" offset=".30111"/>
   <stop id="stop53" style="stop-color:#fafafa;stop-opacity:0" offset=".53130"/>
   <stop id="stop55" style="stop-color:#ebecec;stop-opacity:0" offset=".84490"/>
   <stop id="stop57" style="stop-color:#e1e2e3;stop-opacity:0" offset="1"/>
  </radialGradient>
  <linearGradient id="linearGradient3421" y2="47.013" gradientUnits="userSpaceOnUse" x2="25.132" gradientTransform="matrix(1 0 0 .95617 -1e-7 -1.9149)" y1=".98521" x1="25.132">
   <stop id="stop3602" style="stop-color:#f4f4f4" offset="0"/>
   <stop id="stop3604" style="stop-color:#dbdbdb" offset="1"/>
  </linearGradient>
  <linearGradient id="linearGradient3423" y2="2.9062" gradientUnits="userSpaceOnUse" x2="-51.786" gradientTransform="matrix(.80750 0 0 .89483 59.41 -2.9806)" y1="50.786" x1="-51.786">
   <stop id="stop3106" style="stop-color:#aaa" offset="0"/>
   <stop id="stop3108" style="stop-color:#c8c8c8" offset="1"/>
  </linearGradient>
  <radialGradient id="radialGradient3426" xlink:href="#linearGradient5060" gradientUnits="userSpaceOnUse" cy="486.65" cx="605.71" gradientTransform="matrix(.023040 0 0 0.0147 26.361 37.04)" r="117.14"/>
  <linearGradient id="linearGradient5060">
   <stop id="stop5062" offset="0"/>
   <stop id="stop5064" style="stop-opacity:0" offset="1"/>
  </linearGradient>
  <radialGradient id="radialGradient3429" xlink:href="#linearGradient5060" gradientUnits="userSpaceOnUse" cy="486.65" cx="605.71" gradientTransform="matrix(-.023040 0 0 0.0147 21.623 37.04)" r="117.14"/>
  <linearGradient id="linearGradient4296" y2="609.51" gradientUnits="userSpaceOnUse" y1="366.65" gradientTransform="matrix(.067325 0 0 0.0147 -.34114 37.04)" x2="302.86" x1="302.86">
   <stop id="stop5050" style="stop-opacity:0" offset="0"/>
   <stop id="stop5056" offset=".5"/>
   <stop id="stop5052" style="stop-opacity:0" offset="1"/>
  </linearGradient>
 </defs>
 <metadata id="metadata4303">
  <rdf:RDF>
   <cc:Work rdf:about="">
    <dc:format>image/svg+xml</dc:format>
    <dc:type rdf:resource="http://purl.org/dc/dcmitype/StillImage"/>
    <dc:title/>
   </cc:Work>
  </rdf:RDF>
 </metadata>
 <g id="layer1">
  <rect id="rect2879" style="opacity:.3;fill:url(#linearGradient4296)" height="3.5701" width="32.508" y="42.43" x="7.7378"/>
  <path id="path2881" style="opacity:.3;fill:url(#radialGradient3429)" d="m7.7378 42.43v3.5699c-1.1865 0.0067-2.8684-0.79982-2.8684-1.7852 0-0.98533 1.324-1.7847 2.8684-1.7847z"/>
  <path id="path2883" style="opacity:.3;fill:url(#radialGradient3426)" d="m40.246 42.43v3.5699c1.1865 0.0067 2.8684-0.79982 2.8684-1.7852 0-0.98533-1.324-1.7847-2.8684-1.7847z"/>
  <path id="path4160" style="stroke-linejoin:round;stroke:url(#linearGradient3423);stroke-width:.99992;fill:url(#linearGradient3421)" d="m6.5 0.4972h24.061c1.4069 0.47465 8.9655 5.8822 10.939 9.6264v34.379h-35v-44.006z"/>
  <path id="path4191" style="fill:url(#radialGradient3418)" d="m7.3617 44c-0.1993 0-0.3617-0.17546-0.3617-0.39078v-42.204c0-0.21571 0.1624-0.39078 0.3617-0.39078 7.4833 0.1082 15.775-0.16138 23.249 0.0271l10.283 8.866 0.106 33.702c0 0.216-0.162 0.391-0.362 0.391h-33.276z"/>
  <path id="path2435" style="opacity:.6;stroke-linejoin:round;stroke:url(#linearGradient3415);stroke-width:.99992;fill:none" d="m40.5 10.259v33.263h-33v-42.045h22.866"/>
  <path id="path3897" style="fill:url(#radialGradient3412)" d="m11 11.111h5.9285v28.288h-5.9285v-28.288zm6-4.1109h19v3.9999h-19v-4z"/>
  <rect id="rect3775" style="fill:#f0d6a0" height="6" width="6" y="6" x="11"/>
  <path id="path3595" style="stroke-opacity:.32418;stroke:#5d542c;fill:none" d="m26.5 6.5401v32.857"/>
  <path id="path3607" style="stroke-opacity:.32418;stroke:#5d542c;fill:none" d="m36.5 16.5h-25"/>
  <path id="path3597" style="stroke-opacity:.32418;stroke:#5d542c;fill:none" d="m36.5 21.5h-25"/>
  <path id="path3609" style="stroke-opacity:.32418;stroke:#5d542c;fill:none" d="m36.5 26.5h-25"/>
  <path id="path3603" style="stroke-opacity:.32418;stroke:#5d542c;fill:none" d="m36.5 31.5h-25"/>
  <path id="path3611" style="stroke-opacity:.32418;stroke:#5d542c;fill:none" d="m36.5 36.5h-25"/>
  <path id="path4743" style="opacity:.2;stroke-linejoin:round;fill-rule:evenodd;stroke:#fff;stroke-linecap:square;fill:#fff" d="m12.5 7.5312 23-0.0364"/>
  <path id="path3605" style="stroke:url(#linearGradient3401);fill:none" d="m36.5 11.5h-25m5-4.9978v32.996"/>
  <rect id="rect3580" style="stroke:url(#linearGradient3398);stroke-linecap:square;fill:none" height="33" width="25" y="6.5" x="11.5"/>
  <path id="path12038" style="opacity:.4;fill-rule:evenodd;filter:url(#filter3212)" d="m28.617 0.92126c4.2825 0 2.1532 8.4832 2.1532 8.4832s10.358-1.8023 10.358 2.8187c0-2.6097-11.302-10.729-12.511-11.302z"/>
  <path id="path4474" style="fill:url(#linearGradient3394);fill-rule:evenodd" d="m28.617 0.92126c3.1865 0 2.3358 7.6619 2.3358 7.6619s10.175-0.98105 10.175 3.64c0-1.1259 0.08591-1.9322-0.13378-2.2836-1.5783-2.5242-8.3955-8.1884-10.857-8.9308-0.18422-0.055555-0.5927-0.087535-1.5198-0.087535z"/>
 </g>
</svg>
